X:1
T:Little Dutch Girl
M:C|
L:1/8
K:A
|"A"ecef a3f|efed cB A2|ecef a2 f2| "E"e4 e4|
"A"ecef a3f |efed cBAB|cBAF "E"E2 F2 | "A"A3B A4:|
|: "A"e2 ef e2d2|c3dc2 AB| cBAc "D"d2 c2|"E"B3c B3e|
"D" fefg a2f2| "A"efed cBAB |cBAc "E"BAG2|"A"A3B A4:|]
%%text Transition: Backup plays a big fat A7 on second half of last measure.

